src/actions/32/media-playlist-shuffle.svg

<svg xmlns="http://www.w3.org/2000/svg" viewBox="0 0 32 32">
  <defs
     id="defs3051">
    <style
       type="text/css"
       id="current-color-scheme">
      .ColorScheme-Text {
        color:#2e3440;
      }
      </style>
  </defs>
  <path
     style="fill:currentColor;fill-opacity:1;stroke:none"
     d="M 23.5,6.9999993 V 9.9999998 H 19 c -3.324,0 -5.5,2.6760002 -5.5,6.0000002 0,2.493 -2.474309,5 -5.0000002,5 H 4 v 1 H 8.4999998 C 11.824,22 14.5,19.324 14.5,16 c 0,-2.493 2.007,-5 4.5,-5 h 4.5 v 3 L 28,10.5 Z M 4,9.9999998 V 11 h 4.4999998 c 1.280419,0 2.5930102,0.632095 3.4109532,1.484879 0.143655,-0.516567 0.18248,-0.599627 0.450376,-1.049333 C 11.316857,10.552058 9.9813908,9.9999998 8.4999998,9.9999998 Z M 23.5,18 v 3 H 19 c -1.280419,0 -2.586238,-0.620961 -3.40418,-1.473746 -0.143655,0.516567 -0.189251,0.588493 -0.457148,1.038199 C 16.183143,21.447941 17.518609,22 19,22 h 4.5 v 3 L 28,21.5 Z"
     class="ColorScheme-Text"
     />
</svg>

<svg viewBox="0 0 32 32" xmlns="http://www.w3.org/2000/svg">
 <defs>
  <style type="text/css">.ColorScheme-Text {
        color:#2e3440;
      }</style>
 </defs>
 <path class="ColorScheme-Text" d="m23.5 7v3h-4.5c-3.324 0-5.5 2.676-5.5 6 0 2.493-2.4743 5-5 5h-4.5v1h4.5c3.324 0 6-2.676 6-6 0-2.493 2.007-5 4.5-5h4.5v3l4.5-3.5zm-19.5 3v1h4.5c1.2804 0 2.593 0.6321 3.411 1.4849 0.14366-0.51657 0.18248-0.59963 0.45038-1.0493-1.0445-0.88349-2.3799-1.4355-3.8613-1.4355zm19.5 8v3h-4.5c-1.2804 0-2.5862-0.62096-3.4042-1.4737-0.14366 0.51657-0.18925 0.58849-0.45715 1.0382 1.0445 0.88349 2.3799 1.4355 3.8613 1.4355h4.5v3l4.5-3.5z" fill="currentColor"/>
</svg>
